assets/icons/qvision/phone_android.svg

<svg xmlns="http://www.w3.org/2000/svg" height="24" viewBox="0 0 24 24" width="24"><path d="M0 0h24v24H0z" fill="none"/><path d="M16 1H8C6.34 1 5 2.34 5 4v16c0 1.66 1.34 3 3 3h8c1.66 0 3-1.34 3-3V4c0-1.66-1.34-3-3-3zm-2 20h-4v-1h4v1zm3.25-3H6.75V4h10.5v14z"/></svg>

<svg width="24" height="24" viewBox="0 0 24 24" fill="none" xmlns="http://www.w3.org/2000/svg">
<g clip-path="url(#clip0_147_3037)">
<path d="M16 1H8C6.34 1 5 2.34 5 4V20C5 21.66 6.34 23 8 23H16C17.66 23 19 21.66 19 20V4C19 2.34 17.66 1 16 1ZM14 21H10V20H14V21ZM17.25 18H6.75V4H17.25V18Z" fill="#323232"/>
</g>
<defs>
<clipPath id="clip0_147_3037">
<rect width="24" height="24" fill="white"/>
</clipPath>
</defs>
</svg>
